img/lock-2.svg

<svg width="60" height="60" viewBox="0 0 60 60" fill="none" xmlns="http://www.w3.org/2000/svg">
<path d="M42.2449 22.6531V17.7551C42.2449 10.8979 36.8572 5.51019 30 5.51019C23.1429 5.51019 17.7551 10.8979 17.7551 17.7551V22.6531C13.5919 22.6531 10.4082 25.8367 10.4082 30V47.1428C10.4082 51.3061 13.5919 54.4898 17.7551 54.4898H42.2449C46.4082 54.4898 49.5919 51.3061 49.5919 47.1428V30C49.5919 25.8367 46.4082 22.6531 42.2449 22.6531ZM22.6531 17.7551C22.6531 13.5918 25.8368 10.4082 30 10.4082C34.1633 10.4082 37.347 13.5918 37.347 17.7551V22.6531H22.6531V17.7551ZM32.6939 38.5714L32.449 38.8163V42.2449C32.449 43.7143 31.4694 44.6939 30 44.6939C28.5307 44.6939 27.5511 43.7143 27.5511 42.2449V38.8163C26.0817 37.3469 25.8368 35.1428 27.3062 33.6735C28.7755 32.2041 30.9796 31.9592 32.449 33.4286C33.9184 34.653 34.1633 37.102 32.6939 38.5714Z" fill="#9400B5"/>
</svg>

<svg width="60" height="60" fill="none" xmlns="http://www.w3.org/2000/svg"><path d="M42.245 22.653v-4.898C42.245 10.898 36.857 5.51 30 5.51c-6.857 0-12.245 5.388-12.245 12.245v4.898c-4.163 0-7.347 3.184-7.347 7.347v17.143c0 4.163 3.184 7.347 7.347 7.347h24.49c4.163 0 7.347-3.184 7.347-7.347V30c0-4.163-3.184-7.347-7.347-7.347zm-19.592-4.898c0-4.163 3.184-7.347 7.347-7.347s7.347 3.184 7.347 7.347v4.898H22.653v-4.898zm10.04 20.816l-.244.245v3.429c0 1.47-.98 2.449-2.449 2.449-1.47 0-2.449-.98-2.449-2.45v-3.428c-1.47-1.47-1.714-3.673-.245-5.143 1.47-1.469 3.674-1.714 5.143-.244 1.47 1.224 1.714 3.673.245 5.142z" fill="#9400B5"/></svg>
